X: 963
T: Hangi Bağın Bağbanısan
C: (Anonim)
O: Turkey
F: http://compmusic.upf.edu/node/140
N: saba--turku--duyek--hangi_bagin--
N: makam= saba
N: form= turku
N: usul= duyek = 8/4
M: 8/4
L: 1/16
K: C _2/4B _3/4d  
Q: 1/4=162
%%MIDI tuningsystem comma53
cd cB cd cB cd cd c{d}c BA  | B2 c2 c{d}c BA A8  | 
w:  ARANAĞME  |   | 
z2 cd e2 {f}ed dc2B cB BA  | AB2c c{d}c BA A8  | 
w:   |   | 
cd cB cd cB cd cd c{d}c BA  | B2 c2 c{d}c BA A8  | 
w:  ARANAĞME  |   | 
z2 cd e2 {f}ed dc2B cB BA  | AB2c c{d}c BA A8  | 
w:   |   | 
z2 AB cc3 c2 c2 cc3  | cc d2 dc2B Bc2c cB2A  | 
w:  Han gi  ba ğın  bağ ba nı san   |  gü lü *  sen  *  *  gü lü *  sen    | 
z2 AB c2 dc Bc2c cB BA  | B2 c2 c{d}c BA A8  | \
w:  Al dın_ ak lım  *  be ni  *  et *  tin   |  de li  sen_ *  a *  *  man    | 
z2 AB c2 dc Bc2c cB BA  | 
w:  Al dın_ ak lım  *  be ni  *  et *  tin   | 
B2 c2 c{d}c BA A8  | z2 AB c2 c2 cc3 c2 c2  | \
w:  de li  sen_ *  a *  *  man    |  Kırk  yıl  kal sa  yi ne  ken di   | 
cc d2 dc2B Bc2c cB2A  | 
w:  ma lım *  san  *  *  ma lım *  san    | 
z2 AB c2 dc B2 cd cB BA  | B2 c2 c{d}c BA A8  | \
w:  İs te rim  ki  *  bir gün *  ev *  vel   |  ge le sen_ *  a *  *  man    | 
z2 AB c2 dc B2 cd cB BA  | 
w:  İs te rim  ki  *  bir gün *  ev *  vel   | 
B2 c2 c{d}c BA A8  | cd cB cd cB cd cd c{d}c BA  | 
w:  ge le sen_ *  a *  *  man    |  Öl *  düm  *  bit *  tim  *  e ri *  *  dim   | 
B2 c2 c{d}c BA A8  | z2 cd dd3 dc2d cB BA  | \
w:  tu tuş tum_ *  a *  *  man    |  O  se nin_ aş kın_ e *  lin *  den   | 
B2 c2 dc BA cd cd cd cB  | 
w:  ba yıl dım_ a *  *  man    | 
cd cB cd cB cd cd c{d}c BA  | B2 c2 c{d}c BA A8  | 
w:  Öl *  düm  *  bit *  tim  *  e ri *  *  dim   |  tu tuş tum_ *  a *  *  man    | 
z2 cd dd3 dc2d cB BA  | B2 c2 dc BA cd cd cd cB  | 
w:  O  se nin_ aş kın_ e *  lin *  den   |  ba yıl dım_ a *  *  man    | 
cd cB cd cB cd cd c{d}c BA  | B2 c2 c{d}c BA A8  | 
w:  ARANAĞME  |   | 
z2 cd e2 {f}ed dc2B cB BA  | AB2c c{d}c BA A8  | 
w:   |   | 
cd cB cd cB cd cd c{d}c BA  | B2 c2 c{d}c BA A8  | 
w:  ARANAĞME  |   | 
z2 cd e2 {f}ed dc2B cB BA  | AB2c c{d}c BA A8  | 
w:   |   | 
z2 AB cc3 c2 c2 cc3  | cc d2 dc2B Bc2c cB2A  | 
w:  Han gi  ba ğın  bağ ba nı san   |  gü lü *  sen  *  *  gü lü *  sen    | 
z2 AB c2 dc Bc2c cB BA  | B2 c2 c{d}c BA A8  | \
w:  Al dın_ ak lım  *  be ni  *  et *  tin   |  de li  sen_ *  a *  *  man    | 
z2 AB c2 dc Bc2c cB BA  | 
w:  Al dın_ ak lım  *  be ni  *  et *  tin   | 
B2 c2 c{d}c BA A8  | |


